icons/svg/road_shields/h_blue_usishield_2_road_shield.svg

<?xml version="1.0" encoding="UTF-8" standalone="no"?>
<!-- Generator: Adobe Illustrator 16.0.4, SVG Export Plug-In . SVG Version: 6.00 Build 0)  -->

<svg
   xmlns:dc="http://purl.org/dc/elements/1.1/"
   xmlns:cc="http://creativecommons.org/ns#"
   xmlns:rdf="http://www.w3.org/1999/02/22-rdf-syntax-ns#"
   xmlns:svg="http://www.w3.org/2000/svg"
   xmlns="http://www.w3.org/2000/svg"
   xmlns:sodipodi="http://sodipodi.sourceforge.net/DTD/sodipodi-0.dtd"
   xmlns:inkscape="http://www.inkscape.org/namespaces/inkscape"
   version="1.1"
   id="Слой_1"
   x="0px"
   y="0px"
   width="25"
   height="25"
   viewBox="0 0 25 25"
   enable-background="new 0 0 17.143 17.17"
   xml:space="preserve"
   inkscape:version="0.91 r13725"
   sodipodi:docname="h_blue_usishield_2_road_shield.svg"><metadata
     id="metadata13"><rdf:RDF><cc:Work
         rdf:about=""><dc:format>image/svg+xml</dc:format><dc:type
           rdf:resource="http://purl.org/dc/dcmitype/StillImage" /><dc:title></dc:title></cc:Work></rdf:RDF></metadata><defs
     id="defs11" /><sodipodi:namedview
     pagecolor="#ffffff"
     bordercolor="#666666"
     borderopacity="1"
     objecttolerance="10"
     gridtolerance="10"
     guidetolerance="10"
     inkscape:pageopacity="0"
     inkscape:pageshadow="2"
     inkscape:window-width="1920"
     inkscape:window-height="1006"
     id="namedview9"
     showgrid="false"
     inkscape:zoom="16"
     inkscape:cx="5.518873"
     inkscape:cy="17.78336"
     inkscape:window-x="1920"
     inkscape:window-y="0"
     inkscape:window-maximized="1"
     inkscape:current-layer="Слой_1" /><path
     style="opacity:0.78699999;fill:#f1eae4;fill-opacity:1;stroke:none;stroke-opacity:1"
     d="m 12.485208,1.0399678 c -0.109491,0.00121 -0.218287,0.017562 -0.323294,0.0486 -1.165121,0.3455164 -2.395912,0.5303712 -3.6724502,0.5303712 -1.2085587,0 -2.3761693,-0.1652612 -3.4843909,-0.4754323 C 4.530293,1.0111883 4.0231471,1.1861241 3.7309142,1.5830172 2.7733342,2.8833466 2.0254544,4.3519672 1.5375864,5.9358644 1.1515106,7.5955786 0.94730297,8.810397 0.9417112,10.111217 c 0,6.87509 4.8452413,12.641211 11.3110628,14.015745 0.162989,0.03472 0.331462,0.03472 0.494451,0 C 19.213064,22.752427 24.058288,16.986305 24.058288,10.111217 24.123101,8.5477495 23.87966,7.530648 23.462412,5.9358644 22.97454,4.3519504 22.22661,2.8833246 21.269085,1.5830172 20.976852,1.1861239 20.469706,1.011188 19.994926,1.1435064 c -1.10822,0.3101704 -2.275851,0.4754323 -3.484391,0.4754323 -1.276537,0 -2.507327,-0.1848546 -3.67245,-0.5303712 -0.114511,-0.033862 -0.233476,-0.050247 -0.352877,-0.0486 z"
     id="path4188"
     inkscape:connector-curvature="0"
     sodipodi:nodetypes="ccsccccccccccscc" /><path
     style="fill:#003f87;fill-opacity:1;stroke:none;stroke-opacity:1"
     d="M 2.680664,6.2712515 C 2.236779,7.6366022 2.1292356,9.164122 2.1292356,10.111217 c 0,6.318436 4.4463203,11.596247 10.3707644,12.855692 5.924463,-1.259445 10.370765,-6.537256 10.370765,-12.855692 -2e-6,-0.947095 -0.125081,-2.5851003 -0.546859,-3.8399655 z"
     id="path1608"
     inkscape:connector-curvature="0"
     sodipodi:nodetypes="cscscc" /><g
     style="fill:#af1e2d;fill-opacity:1;stroke:none;stroke-opacity:1"
     transform="matrix(0.03658219,0,0,0.03710978,1.5253413,1.6454193)"
     id="g1610"><path
       inkscape:connector-curvature="0"
       id="path1612"
       style="fill:#af1e2d;fill-opacity:1;stroke:none;stroke-opacity:1"
       d="M 31.324219,124.99902 C 43.579102,85.77832 62.362793,49.44043 86.402832,17.259766 c 33.101558,9.132812 67.967778,14.012695 103.974118,14.012695 38.06055,0 74.84766,-5.45166 109.62305,-15.617676 34.77539,10.166016 71.5625,15.617676 109.62305,15.617676 36.00586,0 70.87304,-4.879883 103.97461,-14.012695 24.03906,32.180664 42.82324,68.518554 55.07812,107.739254 l -537.351561,0 0,0 z" /></g></svg>

<svg width="25" height="25" viewBox="0 0 25 25" fill="none" xmlns="http://www.w3.org/2000/svg">
<path opacity="0.787" d="M12.4852 1.03997C12.3757 1.04118 12.2669 1.05753 12.1619 1.08857C10.9968 1.43409 9.766 1.61894 8.48946 1.61894C7.28091 1.61894 6.1133 1.45368 5.00507 1.14351C4.53029 1.01119 4.02315 1.18613 3.73091 1.58302C2.77333 2.88335 2.02545 4.35197 1.53759 5.93587C1.15151 7.59558 0.947303 8.8104 0.941711 10.1112C0.941711 16.9863 5.78695 22.7524 12.2528 24.127C12.4158 24.1617 12.5842 24.1617 12.7472 24.127C19.2131 22.7524 24.0583 16.9863 24.0583 10.1112C24.1231 8.54775 23.8797 7.53065 23.4624 5.93587C22.9745 4.35195 22.2266 2.88333 21.2691 1.58302C20.9769 1.18613 20.4697 1.01119 19.9949 1.14351C18.8867 1.45368 17.7191 1.61894 16.5105 1.61894C15.234 1.61894 14.0032 1.43409 12.8381 1.08857C12.7236 1.05471 12.6046 1.03832 12.4852 1.03997V1.03997Z" fill="#F1EAE4"/>
<path d="M2.68067 6.27124C2.23679 7.63659 2.12924 9.16411 2.12924 10.1112C2.12924 16.4296 6.57556 21.7075 12.5 22.9669C18.4245 21.7075 22.8708 16.4296 22.8708 10.1112C22.8708 9.16411 22.7457 7.52611 22.3239 6.27124H2.68067Z" fill="#003F87"/>
<path d="M2.67126 6.28412C3.11958 4.82865 3.80672 3.48016 4.68616 2.28594C5.89709 2.62486 7.17257 2.80595 8.48976 2.80595C9.8821 2.80595 11.2279 2.60364 12.5 2.22638C13.7722 2.60364 15.1179 2.80595 16.5103 2.80595C17.8274 2.80595 19.103 2.62486 20.3139 2.28594C21.1933 3.48016 21.8805 4.82865 22.3288 6.28412H2.67126V6.28412Z" fill="#AF1E2D"/>
</svg>
